X: 18735
T: Icy Road, The
R: jig
M: 6/8
K: Aminor
ABA EDE|A2B c2d|egg ged|cdc BcB|
ABA E3|A2c B2d|ede c2e|A3 A,3:|
age ede|a2b a2e|g2a ged|age dcA|
age e3|a2b age|ede c2e|A3 A,3:|

